X:1
T:De Heks van Sier-Kon-Fleks
C:Annie M.G. Schmidt (tekst)
C:Menk van der Velde (muziek)
M:2/4
L:1/8
Q:1/4=80
K:Fm
%%pagescale .9
"Fm"F F/ G/ A B | c d c z/ c/ | "Bbm"B G A F | "Cm"G2 C2 |
w: 1.~Dit is de heks van Sier-kon-fleks, ze woont in Ko-pen-ha-gen
w: 5.~Dit is de heks van Sier-kon-fleks, ze woont in Ko-pen-ha-gen
"Fm"F F/ G/ A B | c d c z/ c/ | "Bbm"B G A F | "Cm"(G A) G2 |
w: Ie-de-re dag doet zij wat geks, en al-le men-sen kla-_gen:
w: Al-le_ men-sen staan per-pleks, zo-als die heks kan pla-_gen.
C =D/ =E/ F E/ F/ | G F/ G/ A A | "Bbm"B B A B | "Cm"c2 c2 | 
w: O wat een heks, wat een a-k'li-ge heks, hoe lang moet dat nog du-ren?
w: O wat een heks, wat een grie-z'li-ge heks, 't~is niet om te ver-dra-gen!
"Fm"f f/ f/ c c | "Bbm"d d "Fm"B z/ B/ | c A B G | "Cm"G2 "Fm"F2  !fine! || 
w: Wie wil de heks van Sier-kon-fleks voor-goed het bos in stu-ren?
w: Wie wil de heks van Sier-kon-fleks voor-goed het bos in ja-gen?
M:6/8
Q:3/8=80
|:z6 | z3 z2 C | "Fm"A2 F (F G) A | "C"G2 G =E2 F | "C7"G G A (B A) G | 
w: 2.~Op zon-dag neemt zij de ko-lo-nel en to-vert hem om in een
w: 3.~Op woens-dag neemt zij het mok-ka-stel en to-vert het om in een
w: 4.~Op vrij-dag bijt_ze de grif-fier en wik-kelt hem dan_ in
"Fm"A2 B c2 c | ("Bbm"d d) d B2 d | "Fm"c2 c A2 c | (=B A) G F2 F |
w: mok-ka-stel. Op maan-_dag doet zij niet zo veel, dan jak-kert zij op haar 
w: ko-lo-nel. De vreugd_ is maar van kor-te duur: hij zit_ nog on-der
w: vloei-pa-pier. Op za-ter-dag gaat zij in het bad, zo-dat_ het in de
"C"=E2 F G2 A | ("Bbm"B B) B (G A) B | "Fm"A2 B c2 C | ("Cm"=D D) D (=E E) E | "Fm"F2 =E F2 z !D.C.! :|
w: be-zem-steel. Op dins-_dag eet zij een school-juf-frouw en laat_ het ver-_der maar blauw-blauw
w: het gla-zuur. Op don-der-dag neemt zij het da-mes-koor en schuift_ het on-der de voor-deur door.
w: rond-te spat en ver-_der speelt_ zij met haar kat het spel-le-tje van_ "wie doet me wat?"